X:55
T:Lass of Richmond Hill,The. JNu.56
M:2/4
L:1/8
Q:1/4=100
C:”Hart’s 8th Set”
S:James Nuttall MS,c1830?,Rossendale,East Lancs.
R:.Quadrille
O:England
A:East Lancashire
Z:vmp.Chris Partington
K:C
G|Gccc|Bddf|ecAd|c2BG|!
Gccc|Bddc|c/B/A/G/ B/A/G/^F/|G3||!
c’2 b/a/g/c’/|bg gc’|Bdfe|e2dG|!
A/B/c/A/ B/c/d/B/|c/d/e/c/ d/e/f/d/|f/e/d/c/ GB|” segno”c3||!
G|Gccc |B/c/d/e/ g/f/e/d/|f/e/d/c/ B/A/f/d/|c/g/e/c/ dG|!
Gccc|B/c/d/e/ g/f/e/d/|f/e/d/c/ GB|c3||!
G/G/|Gcce|cgec|Gddf|dfdB|!
e>dcB|d/c/B/A/ Gc|Bc e/d/c/B/|” DC”c3|]

